X: 23202
T: Leading Role
R: reel
M: 4/4
K: Gmajor
~B2AG EDB,A,|~G,2B,D EDGA|~B2AG EDGA|BE~E2 BEGA|
~B2AG EDB,A,|~G,2B,D EDGA|~B2AG EDB,A,|A,G,B,D ~G3A:|
dG~G2 dGBd|~e2dB ABGA|BE~E2 BEGA|BGAG EDB,D|
Bded dGBd|~e2dB ABGA|~B2AG EDB,A,|A,G,B,D ~G3B||
dG~G2 dGBd|~e2dB ABGA|BE~E2 BEGA|BGAG EDD2|
Bd~d2 dggf|~e2dB ABGA|~B2AG EDB,A,|A,G,B,D ~G3B||

